X:1
T:Liederkreis, Op.39
T:In der Fremde (II)
T:8. In der Fremde (II)
T:Robert Schumann
T:Liederkreis, Op.39
T:Joseph von Eichendorff
T:OpenScore (CC0)
T:OpenScore (CC0)
T:OpenScore (CC0)
T:OpenScore (CC0)
C:Robert Schumann
Z:Joseph von Eichendorff
Z:OpenScore (CC0)
%%score 1 { ( 2 4 ) | ( 3 5 6 ) }
L:1/8
Q:1/4=60
M:2/4
K:C
V:1 treble nm="Voice"
V:2 treble nm="Piano"
V:4 treble 
V:3 bass 
V:5 bass 
V:6 bass 
V:1
"^Zart, heimlich" z2 z z/!p! e/ | e3/2 A/ A B | c c z z/ B/ | B3/2 E/ E ^F | G z z z/ e/ | %5
w: Ich|hör' die Bäch- lein|rau- schen im|Wal- de her und|hin, im|
 e3/2 A/ A B | c c z z/ B/ | B E2 E/ ^F/ | G2 z z/ G/ |!<(! G3/2 G/ (G/e)!<)! d/ | ^c e z2 | %11
w: Wal- de, in dem|Rau- schen ich|weiss nicht, wo ich|bin. Die|Nach- ti- gal- * len|schla- gen|
 G G/ G/ e3/2 d/ | ^c2 z z/ c/ | =c3/2 c/ d c | B d z[Q:1/4=55]"^T" B/"^dim." B/ | %15
w: hier in der Ein- sam-|keit, als|woll- ten sie was|sa- gen von der|
[Q:1/4=50]"^T" B3/2[Q:1/4=45]"^T" B/ d3/2[Q:1/4=40]"^T" c/ | %16
w: al- ten schö- nen|
 B2 z z/"_Im""^Im"[Q:1/4=60]"^T"!p! e/ |"_Tempo""^Tempo" e3/2 A/ A B | c c z z/ B/ | B3/2 E/ E ^F | %20
w: Zeit! Die|Mon- des- schim- mer|flie- gen, als|säh' ich un- ter|
 G z z z/ e/ | e3/2 A/ A B | c c z z/ B/ | B E3/4 E/4 E3/2 ^F/ | G2 z z/ G/ | G3/2 G/ (G/e) d/ | %26
w: mir das|Schloss im Tha- le|lie- gen, und|ist doch so weit von|hier! Als|müss- te in * dem|
 ^c e z z/ G/ | G3/2 G/ e3/2 d/ | ^c2 z c/ c/ | =c3/2 c/ d c | B d z z/[Q:1/4=50]"^T""^dim." B/ | %31
w: Gar- ten voll|Ro- sen weiss und|roth mei- ne|Lieb- ste auf mich|war- ten, und|
 B B/ B/[Q:1/4=40]"^T" d3/2 c/ | B2 z z/[Q:1/4=50]"^T" e/ | e3/2 A/[Q:1/4=40]"^T" c B | %34
w: ist doch so lan- ge|todt, und|ist doch lan- ge|
[Q:1/4=50]"^T" d3 z/ f/ | e3/2[Q:1/4=50]"^T" A/[Q:1/4=45]"^T""^dim." c[Q:1/4=40]"^T" B | %36
w: todt, und|ist doch lan- ge|
[Q:1/4=30]"^T" A2 z2 | z4 | z4 |] %39
w: todt.|||
V:2
!mf! z/!>(! (e/{g}f/e/ f/d/c/B/)!>)! | z/ [Ace]/ z/ [EA]/ z/ [FA]/ z/ [^GB]/ | %2
 [Ac]/!>(! (B/{d}c/B/ c/A/=G/^F/)!>)! | z/ [EGB]/ z/ [B,E]/ z/ [CE]/ z/ [^D^F]/ | %4
 [EG]/!>(! (E/{G}=F/E/ F/=D/C/B,/)!>)! | z/ [Ace]/ z/ [EA]/ z/ [FA]/ z/ [^GB]/ | %6
 [Ac]/!>(! (B/{d}c/B/ c/A/=G/^F/)!>)! | z/ [EGB]/ z/ [B,E]/ z/ [CE]/ z/ [^D^F]/ | %8
 [EG]/!>(! (E/{G}=F/E/ F/=D/C/B,/)!>)! | z/!<(! [^CEG]/ z/ [CEG]/ z/ [DEG]/ z/ [DEG]/!<)! | %10
 [^CEG]/!<(! (e/{a}g/^f/ g/e/d/!<)!^c/) | z/!<(! [^CEG]/ z/ [CEG]/ z/ [DEG]/ z/ [DEG]/!<)! | %12
 [^CEG]/!<(! (e/{a}g/^f/ g/e/d/!<)!^c/) | z/!<(! [=C=F]/ z/ (.[CF]/ z/ .[DF]/!<)! z/ .[CF]/) | %14
 [=B,DF]/ (d/{g}f/e/ f/d/c/"^dim."B/) | z/!<(! [B,DF]/ z/ (.[B,DF]/ z/ .[DF]/!<)! z/!>(! .[CF]/) | %16
 [=B,DF]/!>)! (B/{g}f/e/ f>e) |!p! z/ [Ace]/ z/ [EA]/ z/ [FA]/ z/ [^GB]/ | %18
 [Ac]/!>(! (B/{d}c/B/ e/c/=G/!>)!^F/) | z/ [EGB]/ z/ [B,E]/ z/ [CE]/ z/ [^D^F]/ | %20
 [EG]/!>(! (E/{G}=F/E/ F/=D/C/!>)!B,/) | z/ [Ace]/ z/ [EA]/ z/ [FA]/ z/ [^GB]/ | %22
 [Ac]/!>(! (B/{d}c/B/ e/c/=G/!>)!^F/) | z/ [EGB]/ z/ [B,E]/ z/ [CE]/ z/ [^D^F]/ | %24
 [EG]/!>(! (E/{G}=F/E/ F/=D/C/!>)!B,/) | z/!<(! [^CEG]/ z/ [CEG]/ z/ [DEG]/ z/ [DEG]/!<)! | %26
 [^CEG]/!<(! (e/{a}g/^f/ g/e/d/^c/)!<)! | z/!<(! [^CEG]/ z/ [CEG]/ z/ [DEG]/ z/ [DEG]/!<)! | %28
 [^CEG]/ (e/{a}g/^f/ g/e/d/^c/) | z/!<(! [=C=F]/ z/ (.[CF]/ z/ .[DF]/ z/ .[CF]/)!<)! | %30
 [=B,DF]/ (d/{g}f/e/ f/d/c/"^dim."B/) | z/!<(! [B,DF]/ z/ (.[B,DF]/ z/ .[DF]/ z/ .[CF]/)!<)! | %32
!>(! [B,DF]/!>)! (B/{g}f/e/ f>e) | z/!<(! [ce]/ z/ [FA]/ z/ [Ac]/ z/ [^GB]/!<)! | %34
 [Ad]/!<(! (A/{e}d/^c/!<)! d/A/=G/F/) | z/ [EA=c]/ z/ [A,C]/"^dim." z/ [A,C][^G,B,]/ | %36
[I:staff +1] A,4- |[I:staff -1] [DA-]4 | [^CA]4 |] %39
V:3
 z/ (E/{G}F/E/ F/D/C/B,/) | A, C D E, | A,/ (B,/{D}C/B,/ C/A,/G,/^F,/) | E, G, A, B,, | %4
 E,/ (E,/{G,}=F,/E,/ F,/D,/C,/B,,/) | A,, C D E, | A,/ (B,/{D}C/B,/ C/A,/G,/^F,/) | E, G, A, B,, | %8
 E,/ (E,/{G,}=F,/E,/ F,/D,/C,/B,,/) | A,, A, _B, B, | A,/[K:treble](E/{A}G/^F/ G/E/D/^C/) | %11
 A, A, _B, B, | A,/ (E/{A}G/^F/ G/E/D/^C/) |[K:bass] (_A,A,_B,B, | %14
 G,/)[K:treble] (D/{G}F/E/ F/D/C/B,/) |[K:bass] (G,G,_B,_A, | %16
 G,/)[K:treble] (B,/{G}F/E/ F/D/C/E/) | A, C D[K:bass] E, | A,/ (B,/{D}C/B,/ C/A,/G,/^F,/) | %19
 E, G, A, B,, | E,/ (E,/{G,}=F,/E,/ F,/D,/C,/B,,/) | A,, C D E, | A,/ (B,/{D}C/B,/ C/A,/G,/^F,/) | %23
 E, G, A, B,, | E,/ (E,/{G,}=F,/E,/ F,/D,/C,/B,,/) | A,, A, _B, B, | %26
 A,/[K:treble] (E/{A}G/^F/ G/E/D/^C/) | A, A, _B, B, | A,/ (E/{A}G/^F/ G/E/D/^C/) | %29
[K:bass] (_A,A,_B,B, | G,/)[K:treble] (D/{G}F/E/ F/D/C/B,/) |[K:bass] (G,G,_B,_A, | %32
 G,/)[K:treble] (B,/{G}F/E/ F/D/C/E/) | A, D E[K:bass] E, | !>![F,D]/ (A,/{E}D/^C/ D/A,/G,/F,/) | %35
 =C, F, D, E, | A,,4- | A,4- | A,4 |] %39
V:4
 x4 | x4 | x4 | x4 | x4 | x4 | x4 | x4 | x4 | x4 | x4 | x4 | x4 | x4 | x4 | x4 | x/ B3/2 f/d/c/B/ | %17
 x4 | x4 | x4 | x4 | x4 | x4 | x4 | x4 | x4 | x4 | x4 | x4 | x4 | x4 | x4 | x/ B3/2 f/d/c/B/ | x4 | %34
 x4 | x4 | x4 | x4 | x4 |] %39
V:5
 x4 | x4 | x4 | x4 | x4 | x4 | x4 | x4 | x4 | x4 | x/[K:treble] x7/2 | x4 | x4 |[K:bass] x4 | %14
 x/[K:treble] x7/2 |[K:bass] x4 | x/[K:treble] B,3/2- B,z/[^G,B,]/ | x3[K:bass] x | x4 | x4 | x4 | %21
 x4 | x4 | x4 | x4 | x4 | x/[K:treble] x7/2 | x4 | x4 |[K:bass] x4 | x/[K:treble] x7/2 | %31
[K:bass] x4 | x/[K:treble] B,3/2- B,z/[^G,B,]/ | x3[K:bass] x | x4 | x4 | A,,2 [=G,,E,]2 | %37
 [A,,D,]/"^dim."!<(! A,,/{C,}_B,,/G,,/!<)!!>(! (A,,/F,,/E,,/D,,/!>)! | [A,,,A,,]4) |] %39
V:6
 x4 | x4 | x4 | x4 | x4 | x4 | x4 | x4 | x4 | x4 | x/[K:treble] x7/2 | x4 | x4 |[K:bass] x4 | %14
 x/[K:treble] x7/2 |[K:bass] x4 | x/[K:treble] x7/2 | x3[K:bass] x | x4 | x4 | x4 | x4 | x4 | x4 | %24
 x4 | x4 | x/[K:treble] x7/2 | x4 | x4 |[K:bass] x4 | x/[K:treble] x7/2 |[K:bass] x4 | %32
 x/[K:treble] x7/2 | x3[K:bass] x | x4 | x4 | x4 | F,,2 A,,2 | x4 |] %39

